assets/Left arrow curving right/Flat/left_arrow_curving_right_flat.svg

<svg width="32" height="32" viewBox="0 0 32 32" fill="none" xmlns="http://www.w3.org/2000/svg">
<path d="M2 6C2 3.79086 3.79086 2 6 2H26C28.2091 2 30 3.79086 30 6V26C30 28.2091 28.2091 30 26 30H6C3.79086 30 2 28.2091 2 26V6Z" fill="#00A6ED"/>
<path d="M13.358 7.00001C9.4935 7.0019 6.36127 10.359 6.36127 14.5C6.36127 18.6421 9.49527 22 13.3613 22H20.1112C20.2493 22 20.3612 22.1119 20.3612 22.25V24.6601C20.3612 25.3427 21.199 25.6704 21.6621 25.169L25.8911 20.591C26.1566 20.3036 26.1566 19.8605 25.8911 19.5732L21.6621 14.9952C21.199 14.4938 20.3612 14.8215 20.3612 15.5041V17.75C20.3612 17.8881 20.2493 18 20.1112 18H13.3613C11.9599 18 10.3613 16.6974 10.3613 14.5C10.3613 12.3026 11.9599 11 13.3613 11H19.3612C19.9135 11 20.3612 10.5523 20.3612 10V8C20.3612 7.44772 19.9135 7 19.3612 7H13.3613L13.358 7.00001Z" fill="white"/>
</svg>

<svg xmlns="http://www.w3.org/2000/svg" width="32" height="32" fill="none"><path fill="#00A6ED" d="M2 6a4 4 0 0 1 4-4h20a4 4 0 0 1 4 4v20a4 4 0 0 1-4 4H6a4 4 0 0 1-4-4V6Z"/><path fill="#fff" d="M13.358 7c-3.865.002-6.997 3.359-6.997 7.5 0 4.142 3.134 7.5 7 7.5h6.75a.25.25 0 0 1 .25.25v2.41a.75.75 0 0 0 1.301.509l4.23-4.578a.75.75 0 0 0 0-1.018l-4.23-4.578a.75.75 0 0 0-1.3.51v2.245a.25.25 0 0 1-.25.25h-6.75c-1.402 0-3-1.303-3-3.5s1.598-3.5 3-3.5h6a1 1 0 0 0 1-1V8a1 1 0 0 0-1-1h-6.004Z"/></svg>
